X:1
T:Come, Thou Almighty King
T:Text: Anonymous, ca. 1757 Tune: Felice de Giardini (1716-1796)
T:664 66 64 ITALIAN HYMN www.hymnary.org/text/come_thou_almighty_king_help_us_thy
T:Come, Thou Almighty King
T:This hymn is in the public domain.  You may freely use this score for personal and congregational worship.  If you reproduce the score, please credit Hymnary.org as the source. 
T:This hymn is in the public domain.  You may freely use this score for personal and congregational worship.  If you reproduce the score, please credit Hymnary.org as the source. 
Z:This hymn is in the public domain.  You may freely use this score for personal and congregational worship.  If you reproduce the score, please credit Hymnary.org as the source.
%%score ( 1 2 ) ( 3 4 )
L:1/8
M:3/4
K:F
V:1 treble nm="Piano" snm="Pno."
V:2 treble 
V:3 bass nm="Piano" snm="Pno."
V:4 bass 
V:1
 [Fc]2 [FA]2 [CF]2 | (([DG]2 [CF]2)) [CE]2 | [CF]6 | [CF]2 [CG]2 [FA]2 | (Bc B2) [FA]2 | [EG]6 | %6
w: 3~Come, Ho- ly|Com- * for-|ter,|thy sa- cred|wit- * * ness|bear|
w: 1~Come, thou Al-|migh- * ty|King,|help us thy|name _ _ to|sing,|
w: 2~Come, thou In-|car- * nate|Word,|gird on thy|migh- * * ty|sword,|
 c2 A2 F2 | C6 | [EG]2 [FA]2 [GB]2 | [FA]3 [CG] [CF]2 | [EG]2 [FA]2 [GB]2 | [FA]3 [CG] [CF]2 | %12
w: in this glad|hour:|thou who al-|migh- ty art,|now rule in|ev- ery heart,|
w: help us to|praise:|Fa- ther, all|glo- ri- ous,|o'er all vic-|to- ri- ous,|
w: our prayer at-|tend:|come, and thy|peo- ple bless,|and give thy|word suc- cess:|
 F2 A2 c2 | [Fc]3 [Fd] [Fc]2 | [GB]2 [FA]2 [EG]2 | [CF]6 |] %16
w: and ne'er from|us de- part,|Spi- rit of|power.|
w: come and reign|o- ver us,|An- cient of|Days.|
w: Spi- rit of|ho- li- ness,|on us des-|cend.|
V:2
 x6 | x6 | x6 | x6 | (E2 G2) x2 | x6 | c2 A2 F2 | C6 | x6 | x6 | x6 | x6 | F2 A2 c2 | x6 | x6 | %15
 x6 |] %16
V:3
 [F,A,]2 [F,C]2 [A,,C]2 | (([B,,B,]2 [C,A,]2)) [C,G,]2 | [F,,A,]6 | [F,A,]2 [E,C]2 [F,C]2 | %4
 C4 [F,C]2 | [C,C]6 | C2 A,2 F,2 | C,6 | [C,C]2 [C,C]2 [C,C]2 | [F,C]3 [F,B,] [F,A,]2 | %10
 [C,C]2 [C,C]2 [C,C]2 | [F,C]3 [F,B,] [F,A,]2 | F,2 A,2 C2 | [F,A,]3 [F,B,] [F,A,]2 | %14
 [B,,D]2 [C,C]2 [C,B,]2 | [F,,F,A,]6 |] %16
V:4
 x6 | x6 | x6 | x6 | (G,2 E,2) x2 | x6 | C2 A,2 F,2 | C,6 | x6 | x6 | x6 | x6 | F,2 A,2 C2 | x6 | %14
 x6 | x6 |] %16

